icons/medicine_mortar_fill.svg

<svg width="48" height="48" viewBox="0 0 48 48" fill="none" xmlns="http://www.w3.org/2000/svg">
<path d="M38.0137 7.2646C36.6292 6.46529 34.8612 6.892 33.9937 8.23481L27.6854 18H35.9328L39.3523 11.3286C40.0815 9.90593 39.567 8.16141 38.1825 7.3621L38.0137 7.2646Z" fill="black"/>
<path fill-rule="evenodd" clip-rule="evenodd" d="M43 22H41V25C41 30.7841 37.2225 35.6859 32 37.373V41C32 41.5523 31.5523 42 31 42H17C16.4477 42 16 41.5523 16 41V37.373C10.7775 35.6859 7 30.7841 7 25V22H5V20H43V22ZM18 38V40H30V38H18Z" fill="black"/>
</svg>

<svg
  xmlns="http://www.w3.org/2000/svg"
  width="24"
  height="24"
  viewBox="0 0 24 24"
  fill="none"
  stroke="currentColor"
  stroke-width="2"
  stroke-linecap="round"
  stroke-linejoin="round"
>
  <path d="M38.014 7.265a3 3 0 0 0-4.02.97L27.685 18h8.248l3.42-6.671a3 3 0 0 0-1.17-3.967z" />
  <path
    fill-rule="evenodd"
    d="M43 22h-2v3c0 5.784-3.778 10.686-9 12.373V41a1 1 0 0 1-1 1H17a1 1 0 0 1-1-1v-3.627C10.778 35.686 7 30.784 7 25v-3H5v-2h38zM18 38v2h12v-2z"
    clip-rule="evenodd"
  />
</svg>
